X: 363
T: Arkansas Traveler
C:Traditional, Arr. Tim O'Brien
B: jims roots
M:4/4
L:1/8
Q: 1/4=100
K:D
V:1 
%Q:432
A,B,C|:"D"DFED "G"B,G,B,D|"A"A,G,A,B, "D"D2DF|"A"EDEG FDFA|EFED B,2A,2|
"D"DFED "G"B,G,B,D|"A"A,G,A,B, D2 (3A/B/c|"D"dcdA BcdB|1"A"AFEF "D"D2A,B,:|2"A"AFEF "D"D2fg||
|:"D"a2fa "G"gfeg|"D"fedf "A"ecAc|"D"dcdf "G"edeg|"D"fedf "A"e2fg|
"D"a2fa "G"gfeg|"D"fedf "A"ecAc|"D"dcdA "G"BcdA|1"A"AFEF "D"D2fg:|2"A"AFEF "D"D4||
% abcbook-tune_id 6298c2452ddf20d37b97b03c


% abcbook-boost 0
% abcbook-tablature 
% abcbook-transpose 
% abcbook-lastupdated 1654178373207
% abcbook-soundfonts 
% abcbook-repeats 1


